X: 14348
T: Gallowglass, The
R: jig
M: 6/8
K: Aminor
|:AB|c2A eBd|cAA A2B|c3 efg|dBG GAB|
c2A eBd|cAA e2d|cBA ^GAB|cAA A:|
|:a3 e^fd|cAA A2B|c3 efg|dBG G2e|
a^ga e^fd|cAA Aed|cBA ^GAB|cAA A2e|
a3 e^fd|cAA A2B|c3 e^fg|dBG G2e|
aeg ^fdB|ecA BGE|ABc dBe|cAA A2||

